X: 1
T:The Banks of the Lee  "Arranged by Dave Rickard"
M:3/4
L:1/8
Q:80
C:Traditional Irish
S:Air
K:HP
[| {g}Bd|
{g}e3f{g}ed|
e{g}A-A3B|  !
{g}de-e2{g}dB|
{g}A{d}G-G2{g}eg|
a3gage{g}G-G3A|  !
{g}B3A{g}Bd|
{gef}e4{g}Bd|
{g}e3f{g}ed|  !
e{g}A-A3B{g}de-e2{g}dB|
{g}A{d}G-G2{g}eg|
a3gag|  !
e{g}G-G3A|
{g}B{G}A-A3{GAG}A|
{e}A4|]  !
